X: 03
M: 6/8
L: 1/8
K: G
[|\
|: d |\
e3 e>dc | d3- d2d | B>cd d>cB | A3 d2B |\
c>dc B2G |A>Bc B2G | A2G ^F>EF |1 G3- G2 :|2 G6 |]

